X: 21521
M: 6/8
L: 1/8
K: C
^FzG AzB | d2c- cBc | e2d- d^cd | a2g- g^fg |\
b2a- aef | a2g- g^fg | bag =fed | c2e c2 H|]
z |!ff!\
d/d/ |\
d2d/d/ d2d/d/ | d3- dBG | dBG dBG | (d3 B) zd/d/ |\
(dc'b) a2d/d/ | dba g2g | [^fF][f'f][fF] [d'd][c'c][aA] | [g3G3-][g2G2][gG] !segno!|]


